**kern	**silbe	**kern	**silbe	**harmony	**phrase	**leadinstrument	**rhyme	**timestamp	**harte
*ICvox	*	*ICvox	*	*M4/4	*	*	*	*	*M4/4
*VRlead	*	*VRharmonize*VRbacking	*	*	*	*	*	*	*
*Hstimme	*	*Nstimme	*	*	*	*	*	*	*
*E:	*	*E:	*	*E:	*	*	*	*	*E:
*M4/4	*	*M4/4	*	*	*	*	*	*	*
*clefF4	*	*clefG2	*	*	*	*	*	*	*
r;	.	r;	.	1r;	.	r	.	0	N.C.
=1	=1	=1	=1	=1	=1	=1	=1	=1	=1
*>Letter>A	*>Letter>A	*>Letter>A	*>Letter>A	*>Letter>A	*>Letter>A	*>Letter>A	*>Letter>A	*>Letter>A	*>Letter>A
*>Label>Intro	*>Label>Intro	*>Label>Intro	*>Label>Intro	*>Label>Intro	*>Label>Intro	*>Label>Intro	*>Label>Intro	*>Label>Intro	*>Label>Intro
1r	.	1r	.	1EM	newline	guitar	.	0.944	E:maj
=2	=2	=2	=2	=2	=2	=2	=2	=2	=2
1r	.	1r	.	1EM	.	guitar	.	2.957	E:maj
=3	=3	=3	=3	=3	=3	=3	=3	=3	=3
*>Letter>B	*>Letter>B	*>Letter>B	*>Letter>B	*>Letter>B	*>Letter>B	*>Letter>B	*>Letter>B	*>Letter>B	*>Letter>B
*>Label>Verse	*>Label>Verse	*>Label>Verse	*>Label>Verse	*>Label>Verse	*>Label>Verse	*>Label>Verse	*>Label>Verse	*>Label>Verse	*>Label>Verse
8G#	I	1r	.	1EM	newline	voice	.	4.969	E:maj6(9)
4B	came	.	.	.	.	.	.	.	.
[8B	in	.	.	.	.	.	.	.	.
8B]	_	.	.	.	.	.	.	.	.
4B	to	.	.	.	.	.	.	.	.
8A	town	.	.	.	.	.	.	.	.
=4	=4	=4	=4	=4	=4	=4	=4	=4	=4
2B	_	1r	.	1G#mm	.	voice	.	6.936	G#:min7
4r	.	.	.	.	.	.	.	.	.
8A	with	.	.	.	.	.	.	.	.
8G#	a	.	.	.	.	.	.	.	.
=5	=5	=5	=5	=5	=5	=5	=5	=5	=5
8F#	knap-	1r	.	1F#mm	.	voice	.	8.904	F#:min7
4A	-sack	.	.	.	.	.	.	.	.
[8A	on	.	.	.	.	.	.	.	.
8A]	_	.	.	.	.	.	.	.	.
4A	my	.	.	.	.	.	.	.	.
[8A	shoul	.	.	.	.	.	.	.	.
=6	=6	=6	=6	=6	=6	=6	=6	=6	=6
8A]	_	1r	.	1BMm	.	voice	.	10.871	B:7
4G#	der	.	.	.	.	.	.	.	.
8r	.	.	.	.	.	.	.	.	.
8r	.	.	.	.	.	.	.	.	.
4E	and	.	.	.	.	.	.	.	.
8D#	a	.	.	.	.	.	.	.	.
=7	=7	=7	=7	=7	=7	=7	=7	=7	=7
8E	poc-	1r	.	2C#m	newline	voice	.	12.838	C#:min
4G#	-ket	.	.	.	.	.	.	.	.
[8G#	full	.	.	.	.	.	.	.	.
8G#]	_	.	.	2EM	.	voice	.	13.818	E:maj/5
4G#	of	.	.	.	.	.	.	.	.
8F#q	_	.	.	.	.	.	.	.	.
[8G#	sto	.	.	.	.	.	(A	.	.
=8	=8	=8	=8	=8	=8	=8	=8	=8	=8
8G#]	_	1r	.	2AM	.	voice	.	14.797	A:maj
4.F#	ries	.	.	.	.	.	a)	.	.
4r	.	.	.	2G#mm	.	voice	.	15.776	G#:min7
8r	.	.	.	.	.	.	.	.	.
8C#	that	.	.	.	.	.	.	.	.
=9	=9	=9	=9	=9	=9	=9	=9	=9	=9
8F#	I	1r	.	1F#mm	.	voice	.	16.756	F#:min7
4F#	just	.	.	.	.	.	.	.	.
8F#	had	.	.	.	.	.	.	.	.
8r	.	.	.	.	.	.	.	.	.
8E	to	.	.	.	.	.	.	.	.
8E	tell	.	.	.	.	.	B	.	.
[8F#	_	.	.	.	.	.	.	.	.
=10	=10	=10	=10	=10	=10	=10	=10	=10	=10
4F#]	_	1r	.	1BMm	.	voice	.	18.715	B:7
4r	.	.	.	.	.	.	.	.	.
4r	.	.	.	.	.	.	.	.	.
8r	.	.	.	.	.	.	.	.	.
8~BB	You	.	.	.	.	.	.	.	.
=11	=11	=11	=11	=11	=11	=11	=11	=11	=11
8G#	know	1r	.	1EM	newline	voice	.	20.673	E:maj6(9)
4B	I've	.	.	.	.	.	.	.	.
[8B	knocked	.	.	.	.	.	.	.	.
8B]	_	.	.	.	.	.	.	.	.
[8G#	a	.	.	.	.	.	.	.	.
16G#]	_	.	.	.	.	.	.	.	.
[8.B	round	.	.	.	.	.	.	.	.
=12	=12	=12	=12	=12	=12	=12	=12	=12	=12
8B]	_	1r	.	1G#mm	.	voice	.	22.601	G#:min7
8c#	a	.	.	.	.	.	.	.	.
8B	bit	.	.	.	.	.	.	.	.
8r	.	.	.	.	.	.	.	.	.
4r	.	.	.	.	.	.	.	.	.
8A	and	.	.	.	.	.	.	.	.
8G#	I've	.	.	.	.	.	.	.	.
=13	=13	=13	=13	=13	=13	=13	=13	=13	=13
8F#	had	1r	.	1F#mm	.	voice	.	24.53	F#:min7
8A	my	.	.	.	.	.	.	.	.
4A	share	.	.	.	.	.	.	.	.
4r	.	.	.	.	.	.	.	.	.
8r	.	.	.	.	.	.	.	.	.
8~E	of	.	.	.	.	.	.	.	.
=14	=14	=14	=14	=14	=14	=14	=14	=14	=14
4A	small	1r	.	1BMm	.	voice	.	26.458	B:7
4A	town	.	.	.	.	.	.	.	.
8G#	glo-	.	.	.	.	.	(A	.	.
8F#	-ries,	.	.	.	.	.	a)	.	.
[4G#	_	.	.	.	.	.	.	.	.
=15	=15	=15	=15	=15	=15	=15	=15	=15	=15
8G#]	_	1r	.	2C#m	newline	voice	.	28.386	C#:min
4E	it's	.	.	.	.	.	.	.	.
[8E	time	.	.	.	.	.	.	.	.
8E]	_	.	.	2EM	.	voice	.	29.337	E:maj/5
8F#	to	.	.	.	.	.	.	.	.
8~G#	hit	.	.	.	.	.	C	.	.
8F#	the	.	.	.	.	.	.	.	.
=16	=16	=16	=16	=16	=16	=16	=16	=16	=16
8G#	ci-	1r	.	2AM	.	voice	C	30.289	A:maj
8F#	-ty	.	.	.	.	.	D	.	.
8r	.	.	.	.	.	.	.	.	.
[8E	and	.	.	.	.	.	.	.	.
8E]	_	.	.	2G#mm	.	voice	.	31.241	G#:min7
4C#	that	.	.	.	.	.	.	.	.
8Eq	_	.	.	.	.	.	.	.	.
[8F#	cra	.	.	.	.	.	.	.	.
=17	=17	=17	=17	=17	=17	=17	=17	=17	=17
8F#]	_	1r	.	1F#mm	.	voice	.	32.192	F#:min7
4F#	zy	.	.	.	.	.	D	.	.
8Eq	_	.	.	.	.	.	.	.	.
[8F#	ca	.	.	.	.	.	.	.	.
8F#]	_	.	.	.	.	.	.	.	.
4F#	rou	.	.	.	.	.	.	.	.
8Eq	_	.	.	.	.	.	.	.	.
[8F#	sel	.	.	.	.	.	B	.	.
=18	=18	=18	=18	=18	=18	=18	=18	=18	=18
4.F#]	_	1r	.	1BMm	.	voice	.	34.095	B:7
8r	.	.	.	.	.	.	.	.	.
4r	.	.	.	.	.	.	.	.	.
8r	.	.	.	.	.	.	.	.	.
8~C#	I've	.	.	.	.	.	.	.	.
=19	=19	=19	=19	=19	=19	=19	=19	=19	=19
*>Letter>C	*>Letter>C	*>Letter>C	*>Letter>C	*>Letter>C	*>Letter>C	*>Letter>C	*>Letter>C	*>Letter>C	*>Letter>C
*>Label>Prechorus	*>Label>Prechorus	*>Label>Prechorus	*>Label>Prechorus	*>Label>Prechorus	*>Label>Prechorus	*>Label>Prechorus	*>Label>Prechorus	*>Label>Prechorus	*>Label>Prechorus
8c#	_	1r	.	1AM	newline	voice	.	35.998	A:maj
4c#	been	.	.	.	.	.	.	.	.
[8c#	fee	.	.	.	.	.	.	.	.
8c#]	_	.	.	.	.	.	.	.	.
8c#q	_	.	.	.	.	.	.	.	.
4.e	ling	.	.	.	.	.	.	.	.
=20	=20	=20	=20	=20	=20	=20	=20	=20	=20
8d#	sor-	1r	.	1BM	.	voice	.	37.853	B:maj
4c#	-ry	.	.	.	.	.	.	.	.
[8B	for	.	.	.	.	.	.	.	.
8B]	_	.	.	.	.	.	.	.	.
8Bq	_	.	.	.	.	.	.	.	.
4c#	my-	.	.	.	.	.	.	.	.
[8B	-self	.	.	.	.	.	E	.	.
=21	=21	=21	=21	=21	=21	=21	=21	=21	=21
1B_	_	1r	.	1G#m	.	voice	.	39.709	G#:min
=22	=22	=22	=22	=22	=22	=22	=22	=22	=22
4B]	_	1r	.	1C#m	.	voice	.	41.564	C#:min
4r	.	.	.	.	.	.	.	.	.
8r	.	.	.	.	.	.	.	.	.
8G#q	_	.	.	.	.	.	.	.	.
4A	But,	.	.	.	.	.	.	.	.
8G#	you	.	.	.	.	.	.	.	.
=23	=23	=23	=23	=23	=23	=23	=23	=23	=23
4A	know	1r	.	1F#m	newline	voice	.	43.419	F#:min
8A	I	.	.	.	.	.	.	.	.
8F#	was	.	.	.	.	.	.	.	.
4A	on-	.	.	.	.	.	.	.	.
8B	-ly	.	.	.	.	.	.	.	.
[8G#	lone	.	.	.	.	.	.	.	.
=24	=24	=24	=24	=24	=24	=24	=24	=24	=24
8G#]	_	1r	.	1BM	.	voice	.	45.323	B:maj
4.F#	ly	.	.	.	.	.	.	.	.
4r	.	.	.	.	.	.	.	.	.
4E	like	.	.	.	.	.	.	.	.
=25	=25	=25	=25	=25	=25	=25	=25	=25	=25
8G#q	_	.	.	.	.	.	.	.	.
4A	ev-	1r	.	1AM	.	voice	.	47.226	A:maj
4G#	-'ry-	.	.	.	.	.	.	.	.
8E	-bo-	.	.	.	.	.	.	.	.
8E	-dy	.	.	.	.	.	.	.	.
8C#	_	.	.	.	.	.	.	.	.
[8E	else	.	.	.	.	.	E	.	.
=26	=26	=26	=26	=26	=26	=26	=26	=26	=26
2.E]	_	1r	.	1N	.	voice	.	49.129	N.C.
4r	.	.	.	.	.	.	.	.	.
=27	=27	=27	=27	=27	=27	=27	=27	=27	=27
2r	.	1r	.	1N	.	voice	.	51.033	N.C.
8r	.	.	.	.	.	.	.	.	.
8G#	Un-	.	.	.	.	.	.	.	.
4B	-til	.	.	.	.	.	.	.	.
=28	=28	=28	=28	=28	=28	=28	=28	=28	=28
*>Letter>D	*>Letter>D	*>Letter>D	*>Letter>D	*>Letter>D	*>Letter>D	*>Letter>D	*>Letter>D	*>Letter>D	*>Letter>D
*>Label>Chorus	*>Label>Chorus	*>Label>Chorus	*>Label>Chorus	*>Label>Chorus	*>Label>Chorus	*>Label>Chorus	*>Label>Chorus	*>Label>Chorus	*>Label>Chorus
4r	.	1r	.	1EM	newline	voice	.	52.936	E:maj
4B	you	.	.	.	.	.	.	.	.
4B	brought	.	.	.	.	.	.	.	.
4B	your	.	.	.	.	.	.	.	.
=29	=29	=29	=29	=29	=29	=29	=29	=29	=29
4B	Sun-	1r	.	1EM	.	voice	(F	54.9	E:maj
8G#	-day	.	.	.	.	.	f)	.	.
[8A	mor	.	.	.	.	.	.	.	.
8A]	_	.	.	.	.	.	.	.	.
8A	ning	.	.	.	.	.	.	.	.
4B	_	.	.	.	.	.	.	.	.
=30	=30	=30	=30	=30	=30	=30	=30	=30	=30
4.B	sun-	1r	.	1F#Mm	.	voice	F	56.864	F#:11
[8A	-shine	.	.	.	.	.	.	.	.
2A]	_	.	.	.	.	.	.	.	.
=31	=31	=31	=31	=31	=31	=31	=31	=31	=31
1r	.	1r	.	1F#Mm	.	voice	.	58.829	F#:11
=32	=32	=32	=32	=32	=32	=32	=32	=32	=32
8c#	Here	1r	.	1DM	newline	voice	.	60.793	D:maj
4c#	in-	.	.	.	.	.	.	.	.
[8c#	-to	.	.	.	.	.	.	.	.
8c#]	_	.	.	.	.	.	.	.	.
4c#	my	.	.	.	.	.	.	.	.
8B#q	_	.	.	.	.	.	.	.	.
[8c#	Mon	.	.	.	.	.	(F	.	.
=33	=33	=33	=33	=33	=33	=33	=33	=33	=33
4c#]	_	1r	.	1AM	.	voice	.	62.719	A:maj
4c#	day	.	.	.	.	.	f)	.	.
8B#q	_	.	.	.	.	.	.	.	.
4c#	mor-	.	.	.	.	.	.	.	.
8B	-ning	.	.	.	.	.	.	.	.
[8B	rain	.	.	.	.	.	G	.	.
=34	=34	=34	=34	=34	=34	=34	=34	=34	=34
2B]	_	1r	.	1EM	.	voice	.	64.646	E:maj
2r	.	.	.	.	.	.	.	.	.
=35	=35	=35	=35	=35	=35	=35	=35	=35	=35
1r	.	1r	.	1EM	.	voice	.	66.572	E:maj
=36	=36	=36	=36	=36	=36	=36	=36	=36	=36
4r	.	1r	.	1EM	newline	voice	.	68.499	E:maj
4B	You	.	.	.	.	.	.	.	.
4B	taught	.	.	.	.	.	.	.	.
4B	me	.	.	.	.	.	.	.	.
=37	=37	=37	=37	=37	=37	=37	=37	=37	=37
4B	hap-	1r	.	1EM	.	voice	.	70.456	E:maj
8G#	-pi-	.	.	.	.	.	.	.	.
[8A	-ness	.	.	.	.	.	.	.	.
8A]	_	.	.	.	.	.	.	.	.
8A	just	.	.	.	.	.	.	.	.
4B	_	.	.	.	.	.	.	.	.
=38	=38	=38	=38	=38	=38	=38	=38	=38	=38
8Aq	_	.	.	.	.	.	.	.	.
4.B	one	1r	.	1F#Mm	.	voice	.	72.414	F#:11
[8A	time	.	.	.	.	.	.	.	.
2A]	_	.	.	.	.	.	.	.	.
=39	=39	=39	=39	=39	=39	=39	=39	=39	=39
1r	.	1r	.	1F#Mm	.	voice	.	74.371	F#:11
=40	=40	=40	=40	=40	=40	=40	=40	=40	=40
4r	.	1r	.	1DM	newline	voice	.	76.328	D:maj
4c#	it	.	.	.	.	.	.	.	.
4c#	keeps	.	.	.	.	.	.	.	.
4c#	on	.	.	.	.	.	.	.	.
=41	=41	=41	=41	=41	=41	=41	=41	=41	=41
8c#	co-	1r	.	1AM	.	voice	.	78.261	A:maj
4c#	-ming	.	.	.	.	.	.	.	.
8c#	back	.	.	.	.	.	.	.	.
4r	.	.	.	.	.	.	.	.	.
8B	a	.	.	.	.	.	.	.	.
8Bq	_	.	.	.	.	.	.	.	.
[8c#	gain	.	.	.	.	.	G	.	.
=42	=42	=42	=42	=42	=42	=42	=42	=42	=42
1c#]	_	1r	.	1EM	.	voice	.	80.194	E:maj
=43	=43	=43	=43	=43	=43	=43	=43	=43	=43
2r	.	1r	.	1EM	.	voice	.	82.127	E:maj
4r	.	.	.	.	.	.	.	.	.
8r	.	.	.	.	.	.	.	.	.
[8G#	These	.	.	.	.	.	.	.	.
=44	=44	=44	=44	=44	=44	=44	=44	=44	=44
*>Letter>B	*>Letter>B	*>Letter>B	*>Letter>B	*>Letter>B	*>Letter>B	*>Letter>B	*>Letter>B	*>Letter>B	*>Letter>B
*>Label>Verse	*>Label>Verse	*>Label>Verse	*>Label>Verse	*>Label>Verse	*>Label>Verse	*>Label>Verse	*>Label>Verse	*>Label>Verse	*>Label>Verse
8G#]	_	1r	.	1EM	newline	voice	.	84.06	E:maj6(9)
4G#	streets	.	.	.	.	.	.	.	.
[8B	were	.	.	.	.	.	.	.	.
8B]	_	.	.	.	.	.	.	.	.
8B	ne-	.	.	.	.	.	.	.	.
8c#	-ver	.	.	.	.	.	.	.	.
[8B	high	.	.	.	.	.	.	.	.
=45	=45	=45	=45	=45	=45	=45	=45	=45	=45
8B]	_	1r	.	1G#mm	.	voice	.	85.96	G#:min7
4.c#	ways	.	.	.	.	.	H	.	.
4r	.	.	.	.	.	.	.	.	.
8r	.	.	.	.	.	.	.	.	.
8G#	I	.	.	.	.	.	.	.	.
=46	=46	=46	=46	=46	=46	=46	=46	=46	=46
8F#	had	1r	.	1F#mm	.	voice	.	87.859	F#:min7
4A	not	.	.	.	.	.	.	.	.
[8A	known	.	.	.	.	.	.	.	.
4A]	_	.	.	.	.	.	.	.	.
8G#	the	.	.	.	.	.	.	.	.
8G#q	_	.	.	.	.	.	.	.	.
[8A	sky	.	.	.	.	.	.	.	.
=47	=47	=47	=47	=47	=47	=47	=47	=47	=47
4A]	_	1r	.	1BMm	.	voice	.	89.758	B:7
8A	a-	.	.	.	.	.	.	.	.
8G#	-bove	.	.	.	.	.	I	.	.
8F#	_	.	.	.	.	.	.	.	.
8r	.	.	.	.	.	.	.	.	.
4F#	these	.	.	.	.	.	.	.	.
=48	=48	=48	=48	=48	=48	=48	=48	=48	=48
4E	days	1r	.	2C#m	newline	voice	H	91.657	C#:min
8r	.	.	.	.	.	.	.	.	.
8G#	were	.	.	.	.	.	.	.	.
8G#	ne-	.	.	2EM	.	voice	.	92.603	E:maj/5
4G#	-ver	.	.	.	.	.	.	.	.
[8G#	my	.	.	.	.	.	.	.	.
=49	=49	=49	=49	=49	=49	=49	=49	=49	=49
8G#]	_	1r	.	2AM	.	voice	.	93.548	A:maj
4F#	days	.	.	.	.	.	H	.	.
[8E	for	.	.	.	.	.	.	.	.
8E]	_	.	.	2G#mm	.	voice	.	94.494	G#:min7
4.C#	I	.	.	.	.	.	.	.	.
=50	=50	=50	=50	=50	=50	=50	=50	=50	=50
4F#	had	1r	.	1F#mm	.	voice	.	95.439	F#:min7
4F#	not	.	.	.	.	.	.	.	.
4F#	known	.	.	.	.	.	.	.	.
8F#	your	.	.	.	.	.	.	.	.
8Eq	_	.	.	.	.	.	.	.	.
[8F#	love	.	.	.	.	.	I	.	.
=51	=51	=51	=51	=51	=51	=51	=51	=51	=51
4.F#]	_	1r	.	1BMm	.	voice	.	97.33	B:7
8r	.	.	.	.	.	.	.	.	.
4r	.	.	.	.	.	.	.	.	.
8r	.	.	.	.	.	.	.	.	.
8~BB	It's	.	.	.	.	.	.	.	.
=52	=52	=52	=52	=52	=52	=52	=52	=52	=52
8G#	fun-	1r	.	1EM	newline	voice	.	99.221	E:maj6(9)
4B	-ny	.	.	.	.	.	D	.	.
[8B	how	.	.	.	.	.	.	.	.
4B]	_	.	.	.	.	.	.	.	.
8c#	a	.	.	.	.	.	.	.	.
[8B	ci	.	.	.	.	.	.	.	.
=53	=53	=53	=53	=53	=53	=53	=53	=53	=53
8B]	_	1r	.	1G#mm	.	voice	.	101.11	G#:min7
8c#	ty	.	.	.	.	.	D	.	.
8r	.	.	.	.	.	.	.	.	.
[8B	can	.	.	.	.	.	.	.	.
8B]	_	.	.	.	.	.	.	.	.
4G#	put	.	.	.	.	.	.	.	.
[8F#	on	.	.	.	.	.	.	.	.
=54	=54	=54	=54	=54	=54	=54	=54	=54	=54
8F#]	_	1r	.	1F#mm	.	voice	.	102.999	F#:min7
4A	a	.	.	.	.	.	.	.	.
[8A	diff	.	.	.	.	.	.	.	.
8A]	_	.	.	.	.	.	.	.	.
4A	'rent	.	.	.	.	.	.	.	.
8G#q	_	.	.	.	.	.	.	.	.
[8A	face	.	.	.	.	.	J	.	.
=55	=55	=55	=55	=55	=55	=55	=55	=55	=55
4.A]	_	1r	.	1BMm	.	voice	.	104.887	B:7
8r	.	.	.	.	.	.	.	.	.
8r	.	.	.	.	.	.	.	.	.
8~G#	when	.	.	.	.	.	.	.	.
8F#	it	.	.	.	.	.	.	.	.
[8E	holds	.	.	.	.	.	.	.	.
=56	=56	=56	=56	=56	=56	=56	=56	=56	=56
4E]	_	1r	.	2C#m	newline	voice	.	106.776	C#:min
8G#	the	.	.	.	.	.	.	.	.
[8G#	one	.	.	.	.	.	.	.	.
8G#]	_	.	.	2EM	.	voice	.	107.704	E:maj/5
4G#	you	.	.	.	.	.	.	.	.
[8G#	care	.	.	.	.	.	.	.	.
=57	=57	=57	=57	=57	=57	=57	=57	=57	=57
8G#]	_	1r	.	2AM	.	voice	.	108.633	A:maj
4.F#	for	.	.	.	.	.	.	.	.
8r	.	.	.	2G#mm	.	voice	.	109.561	G#:min7
8C#	it	.	.	.	.	.	.	.	.
8~E	be-	.	.	.	.	.	.	.	.
[8F#	-comes	.	.	.	.	.	.	.	.
=58	=58	=58	=58	=58	=58	=58	=58	=58	=58
8F#]	_	1r	.	1F#mm	.	voice	.	110.489	F#:min7
4F#	a	.	.	.	.	.	.	.	.
[8F#	diff	.	.	.	.	.	.	.	.
8F#]	_	.	.	.	.	.	.	.	.
4F#	'rent	.	.	.	.	.	.	.	.
8E	place	.	.	.	.	.	J	.	.
=59	=59	=59	=59	=59	=59	=59	=59	=59	=59
2F#	_	1r	.	1BMm	.	voice	.	112.345	B:7
8r	.	.	.	.	.	.	.	.	.
8~c#	And	.	.	.	.	.	.	.	.
8c#	I	.	.	.	.	.	.	.	.
[8c#	ne	.	.	.	.	.	.	.	.
=60	=60	=60	=60	=60	=60	=60	=60	=60	=60
*>Letter>C2	*>Letter>C2	*>Letter>C2	*>Letter>C2	*>Letter>C2	*>Letter>C2	*>Letter>C2	*>Letter>C2	*>Letter>C2	*>Letter>C2
*>Label>Prechorus	*>Label>Prechorus	*>Label>Prechorus	*>Label>Prechorus	*>Label>Prechorus	*>Label>Prechorus	*>Label>Prechorus	*>Label>Prechorus	*>Label>Prechorus	*>Label>Prechorus
8c#]	_	1r	.	1AM	newline	voice	.	114.202	A:maj
4c#	ver	.	.	.	.	.	.	.	.
[8c#	felt	.	.	.	.	.	.	.	.
8c#]	_	.	.	.	.	.	.	.	.
[4.e	so	.	.	.	.	.	.	.	.
=61	=61	=61	=61	=61	=61	=61	=61	=61	=61
8e]	_	1r	.	1BM	.	voice	.	116.083	B:maj
[4.d#	far	.	.	.	.	.	.	.	.
8d#]	_	.	.	.	.	.	.	.	.
8c#	from	.	.	.	.	.	.	.	.
8d#	a-	.	.	.	.	.	.	.	.
[8B	-lone	.	.	.	.	.	K	.	.
=62	=62	=62	=62	=62	=62	=62	=62	=62	=62
1B]	_	1r	.	1G#m	.	voice	.	117.964	G#:min
=63	=63	=63	=63	=63	=63	=63	=63	=63	=63
2r	.	1r	.	1C#m	.	voice	.	119.845	C#:min
8r	.	.	.	.	.	.	.	.	.
4.G#	Oh	.	.	.	.	.	.	.	.
=64	=64	=64	=64	=64	=64	=64	=64	=64	=64
4.A	ba-	1r	.	1F#m	newline	voice	.	121.725	F#:min
8A	-by	.	.	.	.	.	.	.	.
4r	.	.	.	.	.	.	.	.	.
8r	.	.	.	.	.	.	.	.	.
8~A	you	.	.	.	.	.	.	.	.
=65	=65	=65	=65	=65	=65	=65	=65	=65	=65
4G#	brought	1r	.	1BM	.	voice	.	123.622	B:maj
4F#	me	.	.	.	.	.	.	.	.
4E	half-	.	.	.	.	.	.	.	.
8Eq	_	.	.	.	.	.	.	.	.
[4F#	-way	.	.	.	.	.	.	.	.
=66	=66	=66	=66	=66	=66	=66	=66	=66	=66
8F#]	_	1r	.	1F#m	.	voice	.	125.519	F#:min
8Eq	_	.	.	.	.	.	.	.	.
[8F#	home	.	.	.	.	.	K	.	.
2.F#_	_	.	.	.	.	.	.	.	.
=67	=67	=67	=67	=67	=67	=67	=67	=67	=67
4F#]	_	1r	.	1BM	.	voice	.	127.415	B:maj
4r	.	.	.	.	.	.	.	.	.
4r	.	.	.	.	.	.	.	.	.
4G#	Oh,	.	.	.	.	.	.	.	.
=68	=68	=68	=68	=68	=68	=68	=68	=68	=68
4.A	ba-	1r	.	1N	newline	voice	.	129.312	N.C.
[8A	-by	.	.	.	.	.	.	.	.
4A]	_	.	.	.	.	.	.	.	.
8r	.	.	.	.	.	.	.	.	.
8~A	you	.	.	.	.	.	.	.	.
=69	=69	=69	=69	=69	=69	=69	=69	=69	=69
4G#	brought	1r	.	1N	.	voice	.	131.158	N.C.
4F#	me	.	.	.	.	.	.	.	.
4E	half-	.	.	.	.	.	.	.	.
[4E	-way	.	.	.	.	.	.	.	.
=70	=70	=70	=70	=70	=70	=70	=70	=70	=70
8E]	_	1r	.	1N	.	voice	.	133.004	N.C.
8C#q	_	.	.	.	.	.	.	.	.
[8E	home	.	.	.	.	.	K	.	.
2.E_	_	.	.	.	.	.	.	.	.
=71	=71	=71	=71	=71	=71	=71	=71	=71	=71
2E]	_	1r	.	1N	.	voice	.	134.85	N.C.
2r	.	.	.	.	.	.	.	.	.
=72	=72	=72	=72	=72	=72	=72	=72	=72	=72
*>Letter>D	*>Letter>D	*>Letter>D	*>Letter>D	*>Letter>D	*>Letter>D	*>Letter>D	*>Letter>D	*>Letter>D	*>Letter>D
*>Label>Chorus	*>Label>Chorus	*>Label>Chorus	*>Label>Chorus	*>Label>Chorus	*>Label>Chorus	*>Label>Chorus	*>Label>Chorus	*>Label>Chorus	*>Label>Chorus
4r	.	1r	.	1EM	newline	voice	.	136.696	E:maj
4B	You	.	.	.	.	.	.	.	.
4B	brought	.	.	.	.	.	.	.	.
4B	your	.	.	.	.	.	.	.	.
=73	=73	=73	=73	=73	=73	=73	=73	=73	=73
4B	Sun-	1r	.	1EM	.	voice	(F	138.635	E:maj
8G#	-day	.	.	.	.	.	f)	.	.
[8A	mor	.	.	.	.	.	.	.	.
8A]	_	.	.	.	.	.	.	.	.
8A	ning	.	.	.	.	.	.	.	.
4B	_	.	.	.	.	.	.	.	.
=74	=74	=74	=74	=74	=74	=74	=74	=74	=74
4.B	sun-	1r	.	1F#Mm	.	voice	F	140.574	F#:11
[8A	-shine	.	.	.	.	.	.	.	.
2A]	_	.	.	.	.	.	.	.	.
=75	=75	=75	=75	=75	=75	=75	=75	=75	=75
1r	.	1r	.	1F#Mm	.	voice	.	142.513	F#:11
=76	=76	=76	=76	=76	=76	=76	=76	=76	=76
4c#	here	1r	.	1DM	newline	voice	.	144.452	D:maj
4c#	in-	.	.	.	.	.	.	.	.
4c#	-to	.	.	.	.	.	.	.	.
4c#	my	.	.	.	.	.	.	.	.
=77	=77	=77	=77	=77	=77	=77	=77	=77	=77
4c#	Mon-	1r	.	1AM	.	voice	(F	146.376	A:maj
8c#	-day	.	.	.	.	.	f)	.	.
[8c#	mor	.	.	.	.	.	.	.	.
8c#]	_	.	.	.	.	.	.	.	.
4B	ning	.	.	.	.	.	.	.	.
[8B	rain	.	.	.	.	.	G	.	.
=78	=78	=78	=78	=78	=78	=78	=78	=78	=78
2B]	_	1r	.	1EM	.	voice	.	148.3	E:maj
2r	.	.	.	.	.	.	.	.	.
=79	=79	=79	=79	=79	=79	=79	=79	=79	=79
1r	.	1r	.	1EM	.	voice	.	150.225	E:maj
=80	=80	=80	=80	=80	=80	=80	=80	=80	=80
4r	.	1r	.	1EM	newline	voice	.	152.149	E:maj
4B	You	.	.	.	.	.	.	.	.
4B	taught	.	.	.	.	.	.	.	.
4B	me	.	.	.	.	.	.	.	.
=81	=81	=81	=81	=81	=81	=81	=81	=81	=81
4B	hap-	1r	.	1EM	.	voice	.	154.075	E:maj
8G#	-pi-	.	.	.	.	.	.	.	.
[8A	-ness	.	.	.	.	.	.	.	.
4A]	_	.	.	.	.	.	.	.	.
4B	just	.	.	.	.	.	.	.	.
=82	=82	=82	=82	=82	=82	=82	=82	=82	=82
8Aq	_	.	.	.	.	.	.	.	.
4.B	one	1r	.	1F#Mm	.	voice	.	156.002	F#:11
[8A	time	.	.	.	.	.	.	.	.
2A]	_	.	.	.	.	.	.	.	.
=83	=83	=83	=83	=83	=83	=83	=83	=83	=83
1r	.	1r	.	1F#Mm	.	voice	.	157.928	F#:11
=84	=84	=84	=84	=84	=84	=84	=84	=84	=84
4r	.	1r	.	1DM	newline	voice	.	159.855	D:maj
4c#	It	.	.	.	.	.	.	.	.
4c#	keeps	.	.	.	.	.	.	.	.
4c#	on	.	.	.	.	.	.	.	.
=85	=85	=85	=85	=85	=85	=85	=85	=85	=85
8c#	co-	1r	.	1AM	.	voice	.	161.78	A:maj
4c#	-ming	.	.	.	.	.	.	.	.
8c#	back	.	.	.	.	.	.	.	.
4r	.	.	.	.	.	.	.	.	.
8B	a	.	.	.	.	.	.	.	.
8Bq	_	.	.	.	.	.	.	.	.
[8c#	gain	.	.	.	.	.	G	.	.
=86	=86	=86	=86	=86	=86	=86	=86	=86	=86
2c#]	_	1r	.	1EM	.	voice	.	163.705	E:maj
8B	and	.	.	.	.	.	.	.	.
4c#	a	.	.	.	.	.	.	.	.
8Bq	_	.	.	.	.	.	.	.	.
[8c#	gain	.	.	.	.	.	G	.	.
=87	=87	=87	=87	=87	=87	=87	=87	=87	=87
4.c#]	_	1r	.	1EM	.	voice	.	165.63	E:maj
[8B	and	.	.	.	.	.	.	.	.
8B]	_	.	.	.	.	.	.	.	.
4.c#	a!	.	.	.	.	.	.	.	.
=88	=88	=88	=88	=88	=88	=88	=88	=88	=88
*>Letter>D	*>Letter>D	*>Letter>D	*>Letter>D	*>Letter>D	*>Letter>D	*>Letter>D	*>Letter>D	*>Letter>D	*>Letter>D
*>Label>Chorus	*>Label>Chorus	*>Label>Chorus	*>Label>Chorus	*>Label>Chorus	*>Label>Chorus	*>Label>Chorus	*>Label>Chorus	*>Label>Chorus	*>Label>Chorus
4r	.	4r	.	1EM	newline	voice	.	167.555	E:maj
4B	You	4g#	You	.	.	.	.	.	.
4B	brought	4g#	brought	.	.	.	.	.	.
4B	your	4g#	your	.	.	.	.	.	.
=89	=89	=89	=89	=89	=89	=89	=89	=89	=89
4B	Sun-	4g#	Sun-	1EM	.	voice	(F	169.474	E:maj
8G#	-day	8e	-day	.	.	.	f)	.	.
[8A	mor	[8f#	mor	.	.	.	.	.	.
8A]	_	8f#]	_	.	.	.	.	.	.
8A	ning	8f#	ning	.	.	.	.	.	.
4B	_	4g#	_	.	.	.	.	.	.
=90	=90	=90	=90	=90	=90	=90	=90	=90	=90
4.B	sun-	4.g#	sun-	1F#Mm	.	voice	F	171.393	F#:11
[8A	-shine	[8f#	-shine	.	.	.	.	.	.
2A]	_	2f#]	_	.	.	.	.	.	.
=91	=91	=91	=91	=91	=91	=91	=91	=91	=91
1r	.	1r	.	1F#Mm	.	voice	.	173.312	F#:11
=92	=92	=92	=92	=92	=92	=92	=92	=92	=92
8c#	here	8a	here	1DM	newline	voice	.	175.23	D:maj
4c#	in-	4a	in-	.	.	.	.	.	.
[8c#	-to	[8a	-to	.	.	.	.	.	.
8c#]	_	8a]	_	.	.	.	.	.	.
4.c#	my	4.a	my	.	.	.	.	.	.
=93	=93	=93	=93	=93	=93	=93	=93	=93	=93
4c#	Mon-	4a	Mon-	1AM	.	voice	(F	177.135	A:maj
4c#	-day	4a	-day	.	.	.	f)	.	.
8B#q	_	8g#q	_	.	.	.	.	.	.
4c#	mor-	4a	mor-	.	.	.	.	.	.
8B	-ning	8a	-ning	.	.	.	.	.	.
[8B	rain	[8g#	rain	.	.	.	G	.	.
=94	=94	=94	=94	=94	=94	=94	=94	=94	=94
2B]	_	2g#]	_	1EM	.	voice	.	179.039	E:maj
2r	.	2r	.	.	.	.	.	.	.
=95	=95	=95	=95	=95	=95	=95	=95	=95	=95
1r	.	1r	.	2EM	.	voice	.	180.944	E:maj
.	.	.	.	2BM	.	voice	.	181.896	B:maj
=96	=96	=96	=96	=96	=96	=96	=96	=96	=96
4r	.	4r	.	1EM	newline	voice	.	182.849	E:maj
4B	You	4g#	You	.	.	.	.	.	.
4B	taught	4g#	taught	.	.	.	.	.	.
4B	me	4g#	me	.	.	.	.	.	.
=97	=97	=97	=97	=97	=97	=97	=97	=97	=97
4B	hap-	4g#	hap-	1EM	.	voice	.	184.767	E:maj
8G#	-pi-	8e	-pi-	.	.	.	.	.	.
[8A	-ness	[8f#	-ness	.	.	.	.	.	.
8A]	_	8f#]	_	.	.	.	.	.	.
8r	.	8r	.	.	.	.	.	.	.
4B	just	4g#	just	.	.	.	.	.	.
=98	=98	=98	=98	=98	=98	=98	=98	=98	=98
8Aq	_	8f#q	_	.	.	.	.	.	.
4.B	one	4.g#	one	1F#Mm	.	voice	.	186.685	F#:11
[8A	time	[8f#	time	.	.	.	.	.	.
4.A]	_	4.f#]	_	.	.	.	.	.	.
8r	.	8r	.	.	.	.	.	.	.
=99	=99	=99	=99	=99	=99	=99	=99	=99	=99
1r	.	1r	.	1F#Mm	.	voice	.	188.604	F#:11
=100	=100	=100	=100	=100	=100	=100	=100	=100	=100
4r	.	4r	.	1DM	newline	voice	.	190.522	D:maj
4c#	It	4a	It	.	.	.	.	.	.
4c#	keeps	4a	keeps	.	.	.	.	.	.
4c#	on	4a	on	.	.	.	.	.	.
=101	=101	=101	=101	=101	=101	=101	=101	=101	=101
8c#	co-	8a	co-	1AM	.	voice	.	192.426	A:maj
4c#	-ming	4a	-ming	.	.	.	.	.	.
8c#	back	8a	back	.	.	.	.	.	.
4r	.	4r	.	.	.	.	.	.	.
8B	a	8a	a	.	.	.	.	.	.
8Bq	_	.	.	.	.	.	.	.	.
[8c#	gain	[8g#	gain	.	.	.	G	.	.
=102	=102	=102	=102	=102	=102	=102	=102	=102	=102
2c#]	_	2g#]	_	1EM	.	voice	.	194.329	E:maj
8B	and	8g#	and	.	.	.	.	.	.
4c#	a	4g#	a	.	.	.	.	.	.
8Bq	_	.	.	.	.	.	.	.	.
[8c#	gain	[8a	gain	.	.	.	G	.	.
=103	=103	=103	=103	=103	=103	=103	=103	=103	=103
4.c#]	_	4.a]	_	2EM	.	voice	.	196.233	E:maj
[8B	and	[8a	and	.	.	.	.	.	.
8B]	_	8a]	_	2BM	.	voice	.	197.184	B:maj
4.c#	a!	4.a	a!	.	.	.	.	.	.
=104	=104	=104	=104	=104	=104	=104	=104	=104	=104
*>Letter>D	*>Letter>D	*>Letter>D	*>Letter>D	*>Letter>D	*>Letter>D	*>Letter>D	*>Letter>D	*>Letter>D	*>Letter>D
*>Label>Chorus	*>Label>Chorus	*>Label>Chorus	*>Label>Chorus	*>Label>Chorus	*>Label>Chorus	*>Label>Chorus	*>Label>Chorus	*>Label>Chorus	*>Label>Chorus
4r	.	4r	.	1EM	newline	voice	.	198.136	E:maj
4B	You	4g#	You	.	.	.	.	.	.
4B	brought	4g#	brought	.	.	.	.	.	.
4B	your	4g#	your	.	.	.	.	.	.
=105	=105	=105	=105	=105	=105	=105	=105	=105	=105
4B	Sun-	4g#	Sun-	1EM	.	voice	(F	200.062	E:maj
8G#	-day	8e	-day	.	.	.	F)	.	.
[8A	mor	[8f#	mor	.	.	.	.	.	.
8A]	_	8f#]	_	.	.	.	.	.	.
8A	ning	8f#	ning	.	.	.	.	.	.
4B	_	4g#	_	.	.	.	.	.	.
=106	=106	=106	=106	=106	=106	=106	=106	=106	=106
4.B	sun-	4.g#	sun-	1F#Mm	.	voice	F	201.989	F#:11
[8A	-shine	[8f#	-shine	.	.	.	.	.	.
2A]	_	2f#]	_	.	.	.	.	.	.
=107	=107	=107	=107	=107	=107	=107	=107	=107	=107
1r	.	1r	.	1F#Mm	.	voice	.	203.915	F#:11
=108	=108	=108	=108	=108	=108	=108	=108	=108	=108
*>Label>>Fadeout	*>Label>>Fadeout	*>Label>>Fadeout	*>Label>>Fadeout	*>Label>>Fadeout	*>Label>>Fadeout	*>Label>>Fadeout	*>Label>>Fadeout	*>Label>>Fadeout	*>Label>>Fadeout
8c#	here	8a	here	1DM	newline	voice	.	205.842	D:maj
4c#	in-	4a	in-	.	.	.	.	.	.
[8c#	-to	[8a	-to	.	.	.	.	.	.
8c#]	_	8a]	_	.	.	.	.	.	.
4c#	my	4a	my	.	.	.	.	.	.
[8c#	Mon	[8a	Mon	.	.	.	(F	.	.
=109	=109	=109	=109	=109	=109	=109	=109	=109	=109
8c#]	_	8a]	_	1AM	.	voice	.	207.752	A:maj
4c#	day	4a	day	.	.	.	f)	.	.
[8c#	mor	[8a	mor	.	.	.	.	.	.
8B#q	_	.	.	.	.	.	.	.	.
4c#]	_	8a]	_	.	.	.	.	.	.
.	.	4g#	_	.	.	.	.	.	.
8B	ning	.	.	.	.	.	.	.	.
[8B	rain	[8g#	rain	.	.	.	G	.	.
=110	=110	=110	=110	=110	=110	=110	=110	=110	=110
2B]	_	2g#]	_	1EM	.	voice	.	209.663	E:maj
2r	.	2r	.	.	.	.	.	.	.
=111	=111	=111	=111	=111	=111	=111	=111	=111	=111
1r	.	1r	.	2EM	.	voice	.	211.574	E:maj
.	.	.	.	2BM	.	voice	.	212.529	B:maj
=112	=112	=112	=112	=112	=112	=112	=112	=112	=112
4r	.	4r	.	1EM	newline	voice	.	213.484	E:maj
4B	You	4g#	You	.	.	.	.	.	.
4B	taught	4g#	taught	.	.	.	.	.	.
4B	me	4g#	me	.	.	.	.	.	.
=113	=113	=113	=113	=113	=113	=113	=113	=113	=113
4B	hap-	4g#	hap-	1EM	.	voice	.	215.39	E:maj
8G#	-pi-	8e	-pi-	.	.	.	.	.	.
[8A	-ness	[8f#	-ness	.	.	.	.	.	.
8A]	_	8f#]	_	.	.	.	.	.	.
8r	.	8r	.	.	.	.	.	.	.
4B	just	4g#	just	.	.	.	.	.	.
=114	=114	=114	=114	=114	=114	=114	=114	=114	=114
8Aq	_	8f#q	_	.	.	.	.	.	.
4.B	one	4.g#	one	1F#Mm	.	voice	.	217.297	F#:11
[8A	time	[8f#	time	.	.	.	.	.	.
4.A]	_	4.f#]	_	.	.	.	.	.	.
8r	.	8r	.	.	.	.	.	.	.
=115	=115	=115	=115	=115	=115	=115	=115	=115	=115
1r	.	1r	.	1F#Mm	.	voice	.	219.203	F#:11
=116	=116	=116	=116	=116	=116	=116	=116	=116	=116
4r	.	4r	.	1DM	newline	voice	.	221.109	D:maj
4c#	It	4a	It	.	.	.	.	.	.
4c#	keeps	4a	keeps	.	.	.	.	.	.
4c#	on	4a	on	.	.	.	.	.	.
=117	=117	=117	=117	=117	=117	=117	=117	=117	=117
8c#	co-	8a	co-	1AM	.	voice	.	222.059	A:maj
4c#	-ming	4a	-ming	.	.	.	.	.	.
8c#	back	8a	back	.	.	.	.	.	.
4r	.	4r	.	.	.	.	.	.	.
8B	a	8a	a	.	.	.	.	.	.
8Bq	_	.	.	.	.	.	.	.	.
[8c#	gain	[8g#	gain	.	.	.	G	.	.
=118	=118	=118	=118	=118	=118	=118	=118	=118	=118
2c#]	_	2g#]	_	1EM	.	voice	.	223.009	E:maj
8B	and	8g#	and	.	.	.	.	.	.
4c#	a	4g#	a	.	.	.	.	.	.
8Bq	_	.	.	.	.	.	.	.	.
[8c#	gain	[8a	gain	.	.	.	G	.	.
=119	=119	=119	=119	=119	=119	=119	=119	=119	=119
4.c#]	_	4.a]	_	1EM	.	voice	.	223.959	E:maj
[8B	and	[8a	and	.	.	.	.	.	.
8B]	_	8a]	_	.	.	.	.	.	.
4.c#	a!	4.a	a!	.	.	.	.	.	.
r;	.	r;	.	1r;	.	r	.	224.908	N.C.
r;	.	r;	.	1r;	.	r	.	228.232	N.C.
*-	*-	*-	*-	*-	*-	*-	*-	*-	*-
!!!BillboardChartDate: 1972/11/25
!!!BillboardPeak: 75
!!!BillboardWeeksOnChart: 6
!!!COC: Harry Chapin
!!!ENC: Nathaniel Condit-Schultz
!!!EST: Awating manual error checking and editing.
!!!OTL: Sunday Morning Sunshine
!!!RDF**chordsym: original McGill chord annotation + (implied pitch class set, with bass pitch in first position)
!!!RDF**harmony: **recip + pitch class of root + harmonic quality
!!!RDF**leadinstrument: original McGill primary instrumentation annotation
!!!RDF**phrase: newline = linebreak in original McGill transcription
!!!RDF**timestamp: McGill audio timestamp in seconds
!!!RDT: 2017/01/12/
!!!SampleActualRank: 80
!!!SampleID#: 0412
!!!SampleTargetRank: 78
